%
O0001
(SOME TEST JOB FOR SWAPPING / REMAPPING TOOL NUMBERS/HEIGHTS AND DIAMETER OFFSETS)
(MCAM FILE - C:\MACHINESHOP\PROGRAMS\CUSTOMER\PROJECT\JOB\PART)
(NC FILE - C:\MACHINESHOP\PROGRAMS\CUSTOMER\PROJECT\JOB\PART)
(MATERIAL - HASTALLOY )
(THIS PROGRAM IS FOR TOOL NUMBER/HEIGHT/DIAMETER REFERENCE ONLY)
(TOOL PATHS PROBABLY DO NOT WORK, TOOL DESCRIPTIONS AND GEOMETRY ARE MORE THAN LIKELY WRONG)
(DO NOT TRY TO RUN IN A MACHINE)
(T18|3. 45 DEG FACING MILL|H18|D18|TOOL DIA. - 3.)
(T4|.500 ROUGHER|H4|D4|TOOL DIA. - .499|XY STOCK - .01|Z STOCK)
(T5|.625 ROUGHER|H5|D5|TOOL DIA. - .499|XY STOCK - .01)
(T12|1.0 HIGH SPEED \.016RAD|H12|D12|TOOL DIA. - 1.|WEAR COMP|XY STOCK - )
(T3|.749 FIN EM |H3|D3|TOOL DIA. - .749|WEAR COMP)
(T11|90 DEG SPOT |H11|D11|TOOL DIA. - .5)
(T9|.625  DRILL |H9|D9|TOOL DIA. - .413)
(T15|M12*1.75 TAP|H15|D15|TOOL DIA. - .472)

G20
G0 G17 G40 G49 G80 G90
M01 G53 G90 G00 X-24.
(45 DEG FACING MILL)
T18 M6
;
G0 G90 G54 X3.4385 Y0. S320 M3
G43 H18 Z1. T4
M8
Z.05
G1 Z0. F4.8
X-3.338 F9.6
G0 Z1.
G53 Z0. M9
M01 G53 G90 G00 X-24.
(.500 ROUGHER)
T4 M6
;
G0 G90 G17 G54 X-1.7959 Y-1.0629 S3875 M3
G43 H4 Z1. T5
M8
Z.05
G1 Z-.51 F31.
X-1.8477 Y-.9294 F62.
X-1.8877 Y-.8266 Z-.5381
G3 X-1.9129 Y-.7879 Z-.55 I-.1046 J-.0407
G2 X-1.9839 Y-.6924 I.6771 J.5771
X-2.0564 Y-.4732 I.4295 J.2637
X-2.062 Y-.2865 I1.86 J.1495
X-2.0597 Y-.0068 I87.7069 J-.5823
G1 X-2.056 Y.3705
G2 X-2.0192 Y.5695 I.6048 J-.0089
X-1.8386 Y.8076 I.5063 J-.1963
X-1.6282 Y.8965 I.2952 J-.4057
X-1.4302 Y.9153 I.2188 J-1.2481
X-1.0661 Y.9158 I.1966 J-10.7912
G1 X-.0465 Y.9074
X1.471 Y.9063
G2 X1.6741 Y.8685 I-.0124 J-.6315
X1.8965 Y.7103 I-.1845 J-.4949
X1.9897 Y.5243 I-.3839 J-.3086
X2.0216 Y.3208 I-1.0424 J-.2678
X2.0311 Y.0024 I-5.1585 J-.3128
Y-.3504 I-21.3238 J-.1754
X1.9916 Y-.554 I-.6232 J.0152
X1.8528 Y-.7566 I-.4987 J.1927
X1.6571 Y-.8625 I-.3235 J.3643
X1.4525 Y-.8961 I-.2698 J1.0028
X1.1336 Y-.906 I-.3134 J4.934
X.5772 Y-.9071 I-.4522 J94.9363
G1 X-1.3554
G2 X-1.5017 Y-.9047 I-.0288 J2.7452
X-1.7077 Y-.8544 I.0334 J.5833
X-1.9733 Y-.546 I.2054 J.4455
X-2.0081 Y-.3604 I.8883 J.2626
X-2.0186 Y-.0762 I3.349 J.2655
X-2.0161 Y.2951 I18.6167 J.0633
X-1.9926 Y.4658 I.7707 J-.0191
X-1.876 Y.6831 I.506 J-.1316
X-1.6915 Y.808 I.3643 J-.3394
X-1.4816 Y.8591 I.3021 J-.7856
X-1.2132 Y.8741 I.2731 J-2.4685
X-.5775 Y.8715 I.1579 J-38.3476
G1 X-.5583 Y.8713
G3 X.6263 Y.8672 I.9384 J99.229
G1 X1.3768 Y.8665
G2 X1.568 Y.843 I-.0048 J-.8263
X1.7766 Y.7362 I-.1236 J-.4987
X1.9118 Y.5447 I-.3377 J-.3819
X1.9667 Y.3371 I-.8016 J-.323
X1.9874 Y.068 I-2.3233 J-.314
X1.9905 Y-.2686 I-8.7211 J-.2498
X1.9621 Y-.4633 I-.7566 J.0112
X1.8451 Y-.6692 I-.4807 J.137
X1.6742 Y-.7849 I-.3701 J.3626
X1.4662 Y-.8411 I-.3243 J.787
X1.1967 Y-.8623 I-.3146 J2.2759
X.6552 Y-.867 I-.4607 J21.6071
G1 X-1.2776 Y-.8672
G2 X-1.445 Y-.8632 I-.0315 J2.2107
X-1.6473 Y-.8148 I.04 J.614
X-1.8663 Y-.6178 I.1921 J.4338
X-1.9395 Y-.4284 I.5908 J.3371
X-1.9707 Y-.1896 I1.3814 J.3021
X-1.9747 Y.2519 I5.7732 J.273
X-1.9408 Y.4468 I.7495 J-.0301
X-1.7372 Y.7077 I.4597 J-.1489
X-1.5268 Y.7934 I.3597 J-.5814
X-1.2882 Y.826 I.3104 J-1.3818
X-.932 Y.8336 I.3038 J-5.9408
X-.3566 Y.8296 I-.3836 J-96.9058
G3 X.4264 Y.8273 I.6786 J98.0216
G1 X1.2905 Y.8267
G2 X1.4726 Y.811 I-.0015 J-1.0804
X1.6748 Y.7304 I-.0908 J-.5216
X1.8379 Y.5451 I-.2885 J-.4185
X1.9108 Y.3379 I-.6937 J-.3604
X1.942 Y.0831 I-1.7042 J-.3383
X1.9482 Y-.2216 I-3.9568 J-.2334
X1.9184 Y-.4159 I-.7734 J.0192
X1.7218 Y-.6815 I-.4664 J.1398
X1.514 Y-.7734 I-.3764 J.5701
X1.275 Y-.8122 I-.3378 J1.3248
X.9367 Y-.8252 I-.3565 J4.8603
X.1116 Y-.8272 I-.643 J96.8476
G1 X-1.2882 Y-.8267
G2 X-1.4711 Y-.8109 I-.0009 J1.0564
X-1.6742 Y-.726 I.0904 J.5012
X-1.8327 Y-.5377 I.3022 J.4153
X-1.9021 Y-.3302 I.7123 J.3536
X-1.9305 Y-.0757 I1.7371 J.3224
X-1.9333 Y.1908 I3.222 J.1677
X-1.9093 Y.3594 I.8246 J-.0314
X-1.7039 Y.6481 I.4819 J-.1254
X-1.4972 Y.7408 I.383 J-.577
X-1.2572 Y.7807 I.3359 J-1.2807
X-.9177 Y.7924 I.3224 J-4.4259
X-.2077 Y.7888 I.0257 J-64.9599
G3 X.1934 Y.7876 I.4866 J96.9976
G1 X1.23 Y.7865
G2 X1.41 Y.7716 I-.007 J-1.1832
X1.6248 Y.6854 I-.0865 J-.5259
G3 X1.635 Y.6801 I.0279 J.0413
G2 X1.7398 Y.6075 I-.1005 J-.2571
X1.8119 Y.4932 I-.1922 J-.2012
X1.8829 Y.2124 I-1.1435 J-.4385
X1.9044 Y-.1842 I-2.4911 J-.334
X1.8776 Y-.3568 I-.7401 J.0267
X1.8115 Y-.4963 I-.4769 J.1404
G3 X1.8063 Y-.5068 I.0417 J-.0276
G2 X1.7325 Y-.6148 I-.2566 J.096
X1.6179 Y-.687 I-.2013 J.1923
X1.3371 Y-.758 I-.4385 J1.1452
X1.0315 Y-.7813 I-.3729 J2.8705
X.4708 Y-.7871 I-.4894 J20.2555
G1 X-1.2162 Y-.7867
G2 X-1.3949 Y-.7737 I.0005 J1.2385
X-1.61 Y-.6904 I.0796 J.5251
G3 X-1.6222 Y-.6845 I-.0275 J-.0416
G2 X-1.7398 Y-.6075 I.0858 J.2592
X-1.8105 Y-.4942 I.1793 J.1906
X-1.8794 Y-.156 I1.4459 J.4705
X-1.8904 Y.1363 I2.3556 J.2351
X-1.8666 Y.307 I.7814 J-.022
X-1.8267 Y.4099 I.504 J-.1363
G3 X-1.8217 Y.4294 I-.0449 J.0217
G2 X-1.7325 Y.6148 I.2653 J-.0136
X-1.5581 Y.6973 I.1934 J-.1832
G3 X-1.4461 Y.7148 I-1.7687 J11.7118
G2 X-1.0231 Y.7492 I.4711 J-3.1785
X-.4623 Y.7505 I.3258 J-19.5034
G1 X.3785 Y.7475
X1.1464 Y.7468
G2 X1.3203 Y.7364 I-.0032 J-1.5186
X1.4676 Y.6999 I-.084 J-.6549
G3 X1.4845 Y.697 I.0169 J.047
G1 X1.5036
G2 X1.5809 Y.6942 I.0195 J-.5268
X1.6182 Y.6858 I-.0381 J-.2567
G3 X1.6643 Y.6817 Z-.5379 I.0327 J.1074
G1 X1.7054 Y.6867 Z-.5271
G2 X1.7307 Y.6832 Z-.5204 I.006 J-.0495
G1 X1.7354 Y.6812 Z-.5191
G2 X1.7625 Y.66 Z-.51 I-.0254 J-.0604
X1.7753 Y.6258 Z-.5218 I-.0525 J-.0392
G1 X1.7785 Y.5845 Z-.5351
G3 X1.7914 Y.5401 Z-.55 I.1119 J.0085
G2 X1.822 Y.4208 I-.2289 J-.1223
G3 X1.8373 Y.2652 I2.2874 J.146
G2 X1.8614 Y-.0578 I-3.4577 J-.4212
X1.8484 Y-.2454 I-.9484 J-.0285
X1.8245 Y-.3347 I-.645 J.1249
G3 X1.822 Y-.3503 I.0474 J-.0156
G1 Y-.3694
G2 X1.8213 Y-.4369 I-1.393 J-.0192
X1.8108 Y-.4932 I-.2588 J.0191
G3 X1.8674 Y-.626 Z-.51 I.1074 J-.0327
X2.0305 Y-.5274 I.0508 J.1001 F400.
G1 X2.0438 Y.4615
G3 X1.8987 Y.5704 I-.1123 J.0015
X1.8201 Y.4494 Z-.55 I.0328 J-.1074 F62.
G2 X1.822 Y.3795 I-.5396 J-.0499
G1 Y-.3739
G3 X1.8315 Y-.4191 Z-.5381 I.1123 J0.
G1 X1.855 Y-.4725 Z-.5232
G2 X1.8644 Y-.523 Z-.51 I-.1027 J-.0452
X1.8534 Y-.5665 I-.1121 J.0053 F400.
G1 X1.8433 Y-.5873
G2 X1.8135 Y-.6253 I-.1011 J.0488
X1.7506 Y-.6505 Z-.5275 I-.0713 J.0868 F62.
G1 X1.7093 Y-.6536 Z-.5381
G3 X1.6649 Y-.6665 Z-.55 I.0084 J-.112
G2 X1.5456 Y-.697 I-.1221 J.229
G3 X1.3899 Y-.7123 I.1471 J-2.2968
G2 X.8762 Y-.7437 I-.5613 J4.9583
X.0691 Y-.7473 I-.6531 J56.068
G1 X-1.1387 Y-.7469
G2 X-1.3128 Y-.7369 I-.0007 J1.5122
X-1.462 Y-.6998 I.0864 J.667
G3 X-1.4786 Y-.697 I-.0166 J-.0471
G1 X-1.4977
G2 X-1.5619 Y-.6963 I-.0191 J1.1873
X-1.5998 Y-.6907 I.0191 J.2588
G3 X-1.646 Y-.69 Z-.5381 I-.0246 J-.1095
G1 X-1.6866 Y-.698 Z-.5275
G2 X-1.7516 Y-.6828 Z-.51 I-.0156 J.0796
X-1.7652 Y-.6695 I.0494 J.0644 F400.
G1 X-1.7654 Y-.6693 Z-.5101 F62.
X-1.7736 Y-.6591 Z-.5134
G2 X-1.7915 Y-.6078 Z-.5275 I.0632 J.0509
G1 X-1.7913 Y-.5664 Z-.5381
G3 X-1.8006 Y-.5211 Z-.55 I-.1123 J.0006
G2 X-1.822 Y-.3987 I.2562 J.108
G3 X-1.8321 Y-.2436 I-2.0883 J-.058
G2 X-1.8476 Y.0391 I3.5484 J.3363
X-1.83 Y.2282 I.8804 J.0133
X-1.8234 Y.2563 I1.131 J-.2489
G3 X-1.822 Y.2872 I-.1066 J.0204
G1 Y.3064
G2 X-1.8213 Y.4369 I5.0067 J.0382
G3 X-1.9057 Y.554 Z-.51 I-.112 J.0083
X-2.0455 Y.4453 I-.0276 J-.1088 F400.
G1 X-2.0464 Y-.4295
G3 X-1.9111 Y-.5395 I.1123 J-.0001
X-1.8219 Y-.426 Z-.55 I-.023 J.1099 F62.
G2 X-1.822 Y-.1869 I96.5242 J.1722
G1 Y.2915
G3 X-1.8315 Y.3368 Z-.5381 I-.1123 J0.
G1 X-1.8601 Y.4016 Z-.52
G2 X-1.8694 Y.4396 Z-.51 I.1028 J.0452
X-1.8636 Y.4831 I.1121 J.0072 F400.
G1 X-1.8162 Y.6222
G2 X-1.7567 Y.688 I.1063 J-.0362
X-1.6895 Y.6964 Z-.5275 I.0468 J-.102 F62.
G1 X-1.6488 Y.6889 Z-.5381
G3 X-1.6026 Y.69 Z-.55 I.0204 J.1104
G2 X-1.5237 Y.697 I.0656 J-.2922
G1 X-1.5045
G3 X-1.1543 Y.7044 I.064 J5.2328
G2 X-.5536 Y.7109 I.4513 J-14.0876
X-.4578 Y.7104 I-.4522 J-97.3949
G1 X.4994 Y.7076
X1.0943 Y.7066
G2 X1.2601 Y.697 I-.0118 J-1.6401
G1 X1.4897
G3 X1.6003 Y.7898 Z-.51 I0. J.1123
X1.4897 Y.9215 I-.1106 J.0195 F400.
G1 X-1.4022
G3 X-1.5128 Y.7898 I0. J-.1122
X-1.4022 Y.697 Z-.55 I.1106 J.0195 F62.
G1 X1.2671
G3 X1.3123 Y.7065 Z-.5341 I0. J.1123
G1 X1.3772 Y.7351 Z-.51
G0 Z1.
X1.8354 Y-.7641
Z.05
G1 Z-.51 F31.
X1.7257 Y-.731 F400.
X1.6202 Y-.6991 Z-.5381 F62.
G3 X1.5742 Y-.6951 Z-.55 I-.0324 J-.1074
G2 X1.5045 Y-.697 I-.0497 J.5441
G1 X1.4854
G3 X1.1257 Y-.6982 I-.0956 J-26.052
X.9729 Y-.7016 I1.243 J-58.8332
G2 X.1463 Y-.7073 I-.6974 J40.9014
G1 X-1.081 Y-.7068
G2 X-1.2552 Y-.697 I.0048 J1.6415
G1 X-1.4848
G3 X-1.5954 Y-.7898 Z-.51 I0. J-.1123
X-1.4848 Y-.9215 I.1106 J-.0195 F400.
G1 X1.2301
G3 X1.3406 Y-.7898 I0. J.1122
X1.2301 Y-.697 Z-.55 I-.1105 J-.0195 F62.
G1 X-1.267
G3 X-1.3123 Y-.7065 Z-.5341 I0. J-.1123
G1 X-1.3771 Y-.7351 Z-.51
G0 Z1.
X-1.7959 Y-1.0629
Z-.5
G1 Z-1.06 F31.
X-1.8477 Y-.9294 F62.
X-1.8877 Y-.8266 Z-1.0881
G3 X-1.9129 Y-.7879 Z-1.1 I-.1046 J-.0407
G2 X-1.9839 Y-.6924 I.6771 J.5771
X-2.0564 Y-.4732 I.4295 J.2637
X-2.062 Y-.2865 I1.86 J.1495
X-2.0597 Y-.0068 I87.7069 J-.5823
G1 X-2.056 Y.3705
G2 X-2.0192 Y.5695 I.6048 J-.0089
X-1.8386 Y.8076 I.5063 J-.1963
X-1.6282 Y.8965 I.2952 J-.4057
X-1.4302 Y.9153 I.2188 J-1.2481
X-1.0661 Y.9158 I.1966 J-10.7912
G1 X-.0465 Y.9074
X1.471 Y.9063
G2 X1.6741 Y.8685 I-.0124 J-.6315
X1.8965 Y.7103 I-.1845 J-.4949
X1.9897 Y.5243 I-.3839 J-.3086
X2.0216 Y.3208 I-1.0424 J-.2678
X2.0311 Y.0024 I-5.1585 J-.3128
Y-.3504 I-21.3238 J-.1754
X1.9916 Y-.554 I-.6232 J.0152
X1.8528 Y-.7566 I-.4987 J.1927
X1.6571 Y-.8625 I-.3235 J.3643
X1.4525 Y-.8961 I-.2698 J1.0028
X1.1336 Y-.906 I-.3134 J4.934
X.5772 Y-.9071 I-.4522 J94.9363
G1 X-1.3554
G2 X-1.5017 Y-.9047 I-.0288 J2.7452
X-1.7077 Y-.8544 I.0334 J.5833
X-1.9733 Y-.546 I.2054 J.4455
X-2.0081 Y-.3604 I.8883 J.2626
X-2.0186 Y-.0762 I3.349 J.2655
X-2.0161 Y.2951 I18.6167 J.0633
X-1.9926 Y.4658 I.7707 J-.0191
X-1.876 Y.6831 I.506 J-.1316
X-1.6915 Y.808 I.3643 J-.3394
X-1.4816 Y.8591 I.3021 J-.7856
X-1.2132 Y.8741 I.2731 J-2.4685
X-.5775 Y.8715 I.1579 J-38.3476
G1 X-.5583 Y.8713
G3 X.6263 Y.8672 I.9384 J99.229
G1 X1.3768 Y.8665
G2 X1.568 Y.843 I-.0048 J-.8263
X1.7766 Y.7362 I-.1236 J-.4987
X1.9118 Y.5447 I-.3377 J-.3819
X1.9667 Y.3371 I-.8016 J-.323
X1.9874 Y.068 I-2.3233 J-.314
X1.9905 Y-.2686 I-8.7211 J-.2498
X1.9621 Y-.4633 I-.7566 J.0112
X1.8451 Y-.6692 I-.4807 J.137
X1.6742 Y-.7849 I-.3701 J.3626
X1.4662 Y-.8411 I-.3243 J.787
X1.1967 Y-.8623 I-.3146 J2.2759
X.6552 Y-.867 I-.4607 J21.6071
G1 X-1.2776 Y-.8672
G2 X-1.445 Y-.8632 I-.0315 J2.2107
X-1.6473 Y-.8148 I.04 J.614
X-1.8663 Y-.6178 I.1921 J.4338
X-1.9395 Y-.4284 I.5908 J.3371
X-1.9707 Y-.1896 I1.3814 J.3021
X-1.9747 Y.2519 I5.7732 J.273
X-1.9408 Y.4468 I.7495 J-.0301
X-1.7372 Y.7077 I.4597 J-.1489
X-1.5268 Y.7934 I.3597 J-.5814
X-1.2882 Y.826 I.3104 J-1.3818
X-.932 Y.8336 I.3038 J-5.9408
X-.3566 Y.8296 I-.3836 J-96.9058
G3 X.4264 Y.8273 I.6786 J98.0216
G1 X1.2905 Y.8267
G2 X1.4726 Y.811 I-.0015 J-1.0804
X1.6748 Y.7304 I-.0908 J-.5216
X1.8379 Y.5451 I-.2885 J-.4185
X1.9108 Y.3379 I-.6937 J-.3604
X1.942 Y.0831 I-1.7042 J-.3383
X1.9482 Y-.2216 I-3.9568 J-.2334
X1.9184 Y-.4159 I-.7734 J.0192
X1.7218 Y-.6815 I-.4664 J.1398
X1.514 Y-.7734 I-.3764 J.5701
X1.275 Y-.8122 I-.3378 J1.3248
X.9367 Y-.8252 I-.3565 J4.8603
X.1116 Y-.8272 I-.643 J96.8476
G1 X-1.2882 Y-.8267
G2 X-1.4711 Y-.8109 I-.0009 J1.0564
X-1.6742 Y-.726 I.0904 J.5012
X-1.8327 Y-.5377 I.3022 J.4153
X-1.9021 Y-.3302 I.7123 J.3536
X-1.9305 Y-.0757 I1.7371 J.3224
X-1.9333 Y.1908 I3.222 J.1677
X-1.9093 Y.3594 I.8246 J-.0314
X-1.7039 Y.6481 I.4819 J-.1254
X-1.4972 Y.7408 I.383 J-.577
X-1.2572 Y.7807 I.3359 J-1.2807
X-.9177 Y.7924 I.3224 J-4.4259
X-.2077 Y.7888 I.0257 J-64.9599
G3 X.1934 Y.7876 I.4866 J96.9976
G1 X1.23 Y.7865
G2 X1.41 Y.7716 I-.007 J-1.1832
X1.6248 Y.6854 I-.0865 J-.5259
G3 X1.635 Y.6801 I.0279 J.0413
G2 X1.7398 Y.6075 I-.1005 J-.2571
X1.8119 Y.4932 I-.1922 J-.2012
X1.8829 Y.2124 I-1.1435 J-.4385
X1.9044 Y-.1842 I-2.4911 J-.334
X1.8776 Y-.3568 I-.7401 J.0267
X1.8115 Y-.4963 I-.4769 J.1404
G3 X1.8063 Y-.5068 I.0417 J-.0276
G2 X1.7325 Y-.6148 I-.2566 J.096
X1.6179 Y-.687 I-.2013 J.1923
X1.3371 Y-.758 I-.4385 J1.1452
X1.0315 Y-.7813 I-.3729 J2.8705
X.4708 Y-.7871 I-.4894 J20.2555
G1 X-1.2162 Y-.7867
G2 X-1.3949 Y-.7737 I.0005 J1.2385
X-1.61 Y-.6904 I.0796 J.5251
G3 X-1.6222 Y-.6845 I-.0275 J-.0416
G2 X-1.7398 Y-.6075 I.0858 J.2592
X-1.8105 Y-.4942 I.1793 J.1906
X-1.8794 Y-.156 I1.4459 J.4705
X-1.8904 Y.1363 I2.3556 J.2351
X-1.8666 Y.307 I.7814 J-.022
X-1.8267 Y.4099 I.504 J-.1363
G3 X-1.8217 Y.4294 I-.0449 J.0217
G2 X-1.7325 Y.6148 I.2653 J-.0136
X-1.5581 Y.6973 I.1934 J-.1832
G3 X-1.4461 Y.7148 I-1.7687 J11.7118
G2 X-1.0231 Y.7492 I.4711 J-3.1785
X-.4623 Y.7505 I.3258 J-19.5034
G1 X.3785 Y.7475
X1.1464 Y.7468
G2 X1.3203 Y.7364 I-.0032 J-1.5186
X1.4676 Y.6999 I-.084 J-.6549
G3 X1.4845 Y.697 I.0169 J.047
G1 X1.5036
G2 X1.5809 Y.6942 I.0195 J-.5268
X1.6182 Y.6858 I-.0381 J-.2567
G3 X1.6643 Y.6817 Z-1.0879 I.0327 J.1074
G1 X1.7054 Y.6867 Z-1.0771
G2 X1.7307 Y.6832 Z-1.0704 I.006 J-.0495
G1 X1.7354 Y.6812 Z-1.0691
G2 X1.7625 Y.66 Z-1.06 I-.0254 J-.0604
X1.7753 Y.6258 Z-1.0718 I-.0525 J-.0392
G1 X1.7785 Y.5845 Z-1.0851
G3 X1.7914 Y.5401 Z-1.1 I.1119 J.0085
G2 X1.822 Y.4208 I-.2289 J-.1223
G3 X1.8373 Y.2652 I2.2874 J.146
G2 X1.8614 Y-.0578 I-3.4577 J-.4212
X1.8484 Y-.2454 I-.9484 J-.0285
X1.8245 Y-.3347 I-.645 J.1249
G3 X1.822 Y-.3503 I.0474 J-.0156
G1 Y-.3694
G2 X1.8213 Y-.4369 I-1.393 J-.0192
X1.8108 Y-.4932 I-.2588 J.0191
G3 X1.8674 Y-.626 Z-1.06 I.1074 J-.0327
X2.0305 Y-.5274 I.0508 J.1001 F400.
G1 X2.0438 Y.4615
G3 X1.8987 Y.5704 I-.1123 J.0015
X1.8201 Y.4494 Z-1.1 I.0328 J-.1074 F62.
G2 X1.822 Y.3795 I-.5396 J-.0499
G1 Y-.3739
G3 X1.8315 Y-.4191 Z-1.0881 I.1123 J0.
G1 X1.855 Y-.4725 Z-1.0732
G2 X1.8644 Y-.523 Z-1.06 I-.1027 J-.0452
X1.8534 Y-.5665 I-.1121 J.0053 F400.
G1 X1.8433 Y-.5873
G2 X1.8135 Y-.6253 I-.1011 J.0488
X1.7506 Y-.6505 Z-1.0775 I-.0713 J.0868 F62.
G1 X1.7093 Y-.6536 Z-1.0881
G3 X1.6649 Y-.6665 Z-1.1 I.0084 J-.112
G2 X1.5456 Y-.697 I-.1221 J.229
G3 X1.3899 Y-.7123 I.1471 J-2.2968
G2 X.8762 Y-.7437 I-.5613 J4.9583
X.0691 Y-.7473 I-.6531 J56.068
G1 X-1.1387 Y-.7469
G2 X-1.3128 Y-.7369 I-.0007 J1.5122
X-1.462 Y-.6998 I.0864 J.667
G3 X-1.4786 Y-.697 I-.0166 J-.0471
G1 X-1.4977
G2 X-1.5619 Y-.6963 I-.0191 J1.1873
X-1.5998 Y-.6907 I.0191 J.2588
G3 X-1.646 Y-.69 Z-1.0881 I-.0246 J-.1095
G1 X-1.6866 Y-.698 Z-1.0775
G2 X-1.7516 Y-.6828 Z-1.06 I-.0156 J.0796
X-1.7652 Y-.6695 I.0494 J.0644 F400.
G1 X-1.7654 Y-.6693 Z-1.0601 F62.
X-1.7736 Y-.6591 Z-1.0634
G2 X-1.7915 Y-.6078 Z-1.0775 I.0632 J.0509
G1 X-1.7913 Y-.5664 Z-1.0881
G3 X-1.8006 Y-.5211 Z-1.1 I-.1123 J.0006
G2 X-1.822 Y-.3987 I.2562 J.108
G3 X-1.8321 Y-.2436 I-2.0883 J-.058
G2 X-1.8476 Y.0391 I3.5484 J.3363
X-1.83 Y.2282 I.8804 J.0133
X-1.8234 Y.2563 I1.131 J-.2489
G3 X-1.822 Y.2872 I-.1066 J.0204
G1 Y.3064
G2 X-1.8213 Y.4369 I5.0067 J.0382
G3 X-1.9057 Y.554 Z-1.06 I-.112 J.0083
X-2.0455 Y.4453 I-.0276 J-.1088 F400.
G1 X-2.0464 Y-.4295
G3 X-1.9111 Y-.5395 I.1123 J-.0001
X-1.8219 Y-.426 Z-1.1 I-.023 J.1099 F62.
G2 X-1.822 Y-.1869 I96.5242 J.1722
G1 Y.2915
G3 X-1.8315 Y.3368 Z-1.0881 I-.1123 J0.
G1 X-1.8601 Y.4016 Z-1.07
G2 X-1.8694 Y.4396 Z-1.06 I.1028 J.0452
X-1.8636 Y.4831 I.1121 J.0072 F400.
G1 X-1.8162 Y.6222
G2 X-1.7567 Y.688 I.1063 J-.0362
X-1.6895 Y.6964 Z-1.0775 I.0468 J-.102 F62.
G1 X-1.6488 Y.6889 Z-1.0881
G3 X-1.6026 Y.69 Z-1.1 I.0204 J.1104
G2 X-1.5237 Y.697 I.0656 J-.2922
G1 X-1.5045
G3 X-1.1543 Y.7044 I.064 J5.2328
G2 X-.5536 Y.7109 I.4513 J-14.0876
X-.4578 Y.7104 I-.4522 J-97.3949
G1 X.4994 Y.7076
X1.0943 Y.7066
G2 X1.2601 Y.697 I-.0118 J-1.6401
G1 X1.4897
G3 X1.6003 Y.7898 Z-1.06 I0. J.1123
X1.4897 Y.9215 I-.1106 J.0195 F400.
G1 X-1.4022
G3 X-1.5128 Y.7898 I0. J-.1122
X-1.4022 Y.697 Z-1.1 I.1106 J.0195 F62.
G1 X1.2671
G3 X1.3123 Y.7065 Z-1.0841 I0. J.1123
G1 X1.3772 Y.7351 Z-1.06
G0 Z1.
X1.8354 Y-.7641
Z-.5
G1 Z-1.06 F31.
X1.7257 Y-.731 F400.
X1.6202 Y-.6991 Z-1.0881 F62.
G3 X1.5742 Y-.6951 Z-1.1 I-.0324 J-.1074
G2 X1.5045 Y-.697 I-.0497 J.5441
G1 X1.4854
G3 X1.1257 Y-.6982 I-.0956 J-26.052
X.9729 Y-.7016 I1.243 J-58.8332
G2 X.1463 Y-.7073 I-.6974 J40.9014
G1 X-1.081 Y-.7068
G2 X-1.2552 Y-.697 I.0048 J1.6415
G1 X-1.4848
G3 X-1.5954 Y-.7898 Z-1.06 I0. J-.1123
X-1.4848 Y-.9215 I.1106 J-.0195 F400.
G1 X1.2301
G3 X1.3406 Y-.7898 I0. J.1122
X1.2301 Y-.697 Z-1.1 I-.1105 J-.0195 F62.
G1 X-1.267
G3 X-1.3123 Y-.7065 Z-1.0841 I0. J-.1123
G1 X-1.3771 Y-.7351 Z-1.06
G0 Z1.
G53 Z0. M9
M01 G53 G90 G00 X-24.
(1/2 DATA)
T5 M6
;
G0 G90 G17 G54 X-1.7959 Y-1.0629 S2583 M3
G43 H5 Z1. T12
M8
Z-1.05
G1 Z-1.56 F25.8
X-1.8477 Y-.9294 F51.7
X-1.8877 Y-.8266 Z-1.5881
G3 X-1.9129 Y-.7879 Z-1.6 I-.1046 J-.0407
G2 X-1.9839 Y-.6924 I.6771 J.5771
X-2.0564 Y-.4732 I.4295 J.2637
X-2.062 Y-.2865 I1.86 J.1495
X-2.0597 Y-.0068 I87.7069 J-.5823
G1 X-2.056 Y.3705
G2 X-2.0192 Y.5695 I.6048 J-.0089
X-1.8386 Y.8076 I.5063 J-.1963
X-1.6282 Y.8965 I.2952 J-.4057
X-1.4302 Y.9153 I.2188 J-1.2481
X-1.0661 Y.9158 I.1966 J-10.7912
G1 X-.0465 Y.9074
X1.471 Y.9063
G2 X1.6741 Y.8685 I-.0124 J-.6315
X1.8965 Y.7103 I-.1845 J-.4949
X1.9897 Y.5243 I-.3839 J-.3086
X2.0216 Y.3208 I-1.0424 J-.2678
X2.0311 Y.0024 I-5.1585 J-.3128
Y-.3504 I-21.3238 J-.1754
X1.9916 Y-.554 I-.6232 J.0152
X1.8528 Y-.7566 I-.4987 J.1927
X1.6571 Y-.8625 I-.3235 J.3643
X1.4525 Y-.8961 I-.2698 J1.0028
X1.1336 Y-.906 I-.3134 J4.934
X.5772 Y-.9071 I-.4522 J94.9363
G1 X-1.3554
G2 X-1.5017 Y-.9047 I-.0288 J2.7452
X-1.7077 Y-.8544 I.0334 J.5833
X-1.9733 Y-.546 I.2054 J.4455
X-2.0081 Y-.3604 I.8883 J.2626
X-2.0186 Y-.0762 I3.349 J.2655
X-2.0161 Y.2951 I18.6167 J.0633
X-1.9926 Y.4658 I.7707 J-.0191
X-1.876 Y.6831 I.506 J-.1316
X-1.6915 Y.808 I.3643 J-.3394
X-1.4816 Y.8591 I.3021 J-.7856
X-1.2132 Y.8741 I.2731 J-2.4685
X-.5775 Y.8715 I.1579 J-38.3476
G1 X-.5583 Y.8713
G3 X.6263 Y.8672 I.9384 J99.229
G1 X1.3768 Y.8665
G2 X1.568 Y.843 I-.0048 J-.8263
X1.7766 Y.7362 I-.1236 J-.4987
X1.9118 Y.5447 I-.3377 J-.3819
X1.9667 Y.3371 I-.8016 J-.323
X1.9874 Y.068 I-2.3233 J-.314
X1.9905 Y-.2686 I-8.7211 J-.2498
X1.9621 Y-.4633 I-.7566 J.0112
X1.8451 Y-.6692 I-.4807 J.137
X1.6742 Y-.7849 I-.3701 J.3626
X1.4662 Y-.8411 I-.3243 J.787
X1.1967 Y-.8623 I-.3146 J2.2759
X.6552 Y-.867 I-.4607 J21.6071
G1 X-1.2776 Y-.8672
G2 X-1.445 Y-.8632 I-.0315 J2.2107
X-1.6473 Y-.8148 I.04 J.614
X-1.8663 Y-.6178 I.1921 J.4338
X-1.9395 Y-.4284 I.5908 J.3371
X-1.9707 Y-.1896 I1.3814 J.3021
X-1.9747 Y.2519 I5.7732 J.273
X-1.9408 Y.4468 I.7495 J-.0301
X-1.7372 Y.7077 I.4597 J-.1489
X-1.5268 Y.7934 I.3597 J-.5814
X-1.2882 Y.826 I.3104 J-1.3818
X-.932 Y.8336 I.3038 J-5.9408
X-.3566 Y.8296 I-.3836 J-96.9058
G3 X.4264 Y.8273 I.6786 J98.0216
G1 X1.2905 Y.8267
G2 X1.4726 Y.811 I-.0015 J-1.0804
X1.6748 Y.7304 I-.0908 J-.5216
X1.8379 Y.5451 I-.2885 J-.4185
X1.9108 Y.3379 I-.6937 J-.3604
X1.942 Y.0831 I-1.7042 J-.3383
X1.9482 Y-.2216 I-3.9568 J-.2334
X1.9184 Y-.4159 I-.7734 J.0192
X1.7218 Y-.6815 I-.4664 J.1398
X1.514 Y-.7734 I-.3764 J.5701
X1.275 Y-.8122 I-.3378 J1.3248
X.9367 Y-.8252 I-.3565 J4.8603
X.1116 Y-.8272 I-.643 J96.8476
G1 X-1.2882 Y-.8267
G2 X-1.4711 Y-.8109 I-.0009 J1.0564
X-1.6742 Y-.726 I.0904 J.5012
X-1.8327 Y-.5377 I.3022 J.4153
X-1.9021 Y-.3302 I.7123 J.3536
X-1.9305 Y-.0757 I1.7371 J.3224
X-1.9333 Y.1908 I3.222 J.1677
X-1.9093 Y.3594 I.8246 J-.0314
X-1.7039 Y.6481 I.4819 J-.1254
X-1.4972 Y.7408 I.383 J-.577
X-1.2572 Y.7807 I.3359 J-1.2807
X-.9177 Y.7924 I.3224 J-4.4259
X-.2077 Y.7888 I.0257 J-64.9599
G3 X.1934 Y.7876 I.4866 J96.9976
G1 X1.23 Y.7865
G2 X1.41 Y.7716 I-.007 J-1.1832
X1.6248 Y.6854 I-.0865 J-.5259
G3 X1.635 Y.6801 I.0279 J.0413
G2 X1.7398 Y.6075 I-.1005 J-.2571
X1.8119 Y.4932 I-.1922 J-.2012
X1.8829 Y.2124 I-1.1435 J-.4385
X1.9044 Y-.1842 I-2.4911 J-.334
X1.8776 Y-.3568 I-.7401 J.0267
X1.8115 Y-.4963 I-.4769 J.1404
G3 X1.8063 Y-.5068 I.0417 J-.0276
G2 X1.7325 Y-.6148 I-.2566 J.096
X1.6179 Y-.687 I-.2013 J.1923
X1.3371 Y-.758 I-.4385 J1.1452
X1.0315 Y-.7813 I-.3729 J2.8705
X.4708 Y-.7871 I-.4894 J20.2555
G1 X-1.2162 Y-.7867
G2 X-1.3949 Y-.7737 I.0005 J1.2385
X-1.61 Y-.6904 I.0796 J.5251
G3 X-1.6222 Y-.6845 I-.0275 J-.0416
G2 X-1.7398 Y-.6075 I.0858 J.2592
X-1.8105 Y-.4942 I.1793 J.1906
X-1.8794 Y-.156 I1.4459 J.4705
X-1.8904 Y.1363 I2.3556 J.2351
X-1.8666 Y.307 I.7814 J-.022
X-1.8267 Y.4099 I.504 J-.1363
G3 X-1.8217 Y.4294 I-.0449 J.0217
G2 X-1.7325 Y.6148 I.2653 J-.0136
X-1.5581 Y.6973 I.1934 J-.1832
G3 X-1.4461 Y.7148 I-1.7687 J11.7118
G2 X-1.0231 Y.7492 I.4711 J-3.1785
X-.4623 Y.7505 I.3258 J-19.5034
G1 X.3785 Y.7475
X1.1464 Y.7468
G2 X1.3203 Y.7364 I-.0032 J-1.5186
X1.4676 Y.6999 I-.084 J-.6549
G3 X1.4845 Y.697 I.0169 J.047
G1 X1.5036
G2 X1.5809 Y.6942 I.0195 J-.5268
X1.6182 Y.6858 I-.0381 J-.2567
G3 X1.6643 Y.6817 Z-1.5879 I.0327 J.1074
G1 X1.7054 Y.6867 Z-1.5771
G2 X1.7307 Y.6832 Z-1.5704 I.006 J-.0495
G1 X1.7354 Y.6812 Z-1.5691
G2 X1.7625 Y.66 Z-1.56 I-.0254 J-.0604
X1.7753 Y.6258 Z-1.5718 I-.0525 J-.0392
G1 X1.7785 Y.5845 Z-1.5851
G3 X1.7914 Y.5401 Z-1.6 I.1119 J.0085
G2 X1.822 Y.4208 I-.2289 J-.1223
G3 X1.8373 Y.2652 I2.2874 J.146
G2 X1.8614 Y-.0578 I-3.4577 J-.4212
X1.8484 Y-.2454 I-.9484 J-.0285
X1.8245 Y-.3347 I-.645 J.1249
G3 X1.822 Y-.3503 I.0474 J-.0156
G1 Y-.3694
G2 X1.8213 Y-.4369 I-1.393 J-.0192
X1.8108 Y-.4932 I-.2588 J.0191
G3 X1.8674 Y-.626 Z-1.56 I.1074 J-.0327
X2.0305 Y-.5274 I.0508 J.1001 F400.
G1 X2.0438 Y.4615
G3 X1.8987 Y.5704 I-.1123 J.0015
X1.8201 Y.4494 Z-1.6 I.0328 J-.1074 F51.7
G2 X1.822 Y.3795 I-.5396 J-.0499
G1 Y-.3739
G3 X1.8315 Y-.4191 Z-1.5881 I.1123 J0.
G1 X1.855 Y-.4725 Z-1.5732
G2 X1.8644 Y-.523 Z-1.56 I-.1027 J-.0452
X1.8534 Y-.5665 I-.1121 J.0053 F400.
G1 X1.8433 Y-.5873
G2 X1.8135 Y-.6253 I-.1011 J.0488
X1.7506 Y-.6505 Z-1.5775 I-.0713 J.0868 F51.7
G1 X1.7093 Y-.6536 Z-1.5881
G3 X1.6649 Y-.6665 Z-1.6 I.0084 J-.112
G2 X1.5456 Y-.697 I-.1221 J.229
G3 X1.3899 Y-.7123 I.1471 J-2.2968
G2 X.8762 Y-.7437 I-.5613 J4.9583
X.0691 Y-.7473 I-.6531 J56.068
G1 X-1.1387 Y-.7469
G2 X-1.3128 Y-.7369 I-.0007 J1.5122
X-1.462 Y-.6998 I.0864 J.667
G3 X-1.4786 Y-.697 I-.0166 J-.0471
G1 X-1.4977
G2 X-1.5619 Y-.6963 I-.0191 J1.1873
X-1.5998 Y-.6907 I.0191 J.2588
G3 X-1.646 Y-.69 Z-1.5881 I-.0246 J-.1095
G1 X-1.6866 Y-.698 Z-1.5775
G2 X-1.7516 Y-.6828 Z-1.56 I-.0156 J.0796
X-1.7652 Y-.6695 I.0494 J.0644 F400.
G1 X-1.7654 Y-.6693 Z-1.5601 F51.7
X-1.7736 Y-.6591 Z-1.5634
G2 X-1.7915 Y-.6078 Z-1.5775 I.0632 J.0509
G1 X-1.7913 Y-.5664 Z-1.5881
G3 X-1.8006 Y-.5211 Z-1.6 I-.1123 J.0006
G2 X-1.822 Y-.3987 I.2562 J.108
G3 X-1.8321 Y-.2436 I-2.0883 J-.058
G2 X-1.8476 Y.0391 I3.5484 J.3363
X-1.83 Y.2282 I.8804 J.0133
X-1.8234 Y.2563 I1.131 J-.2489
G3 X-1.822 Y.2872 I-.1066 J.0204
G1 Y.3064
G2 X-1.8213 Y.4369 I5.0067 J.0382
G3 X-1.9057 Y.554 Z-1.56 I-.112 J.0083
X-2.0455 Y.4453 I-.0276 J-.1088 F400.
G1 X-2.0464 Y-.4295
G3 X-1.9111 Y-.5395 I.1123 J-.0001
X-1.8219 Y-.426 Z-1.6 I-.023 J.1099 F51.7
G2 X-1.822 Y-.1869 I96.5242 J.1722
G1 Y.2915
G3 X-1.8315 Y.3368 Z-1.5881 I-.1123 J0.
G1 X-1.8601 Y.4016 Z-1.57
G2 X-1.8694 Y.4396 Z-1.56 I.1028 J.0452
X-1.8636 Y.4831 I.1121 J.0072 F400.
G1 X-1.8162 Y.6222
G2 X-1.7567 Y.688 I.1063 J-.0362
X-1.6895 Y.6964 Z-1.5775 I.0468 J-.102 F51.7
G1 X-1.6488 Y.6889 Z-1.5881
G3 X-1.6026 Y.69 Z-1.6 I.0204 J.1104
G2 X-1.5237 Y.697 I.0656 J-.2922
G1 X-1.5045
G3 X-1.1543 Y.7044 I.064 J5.2328
G2 X-.5536 Y.7109 I.4513 J-14.0876
X-.4578 Y.7104 I-.4522 J-97.3949
G1 X.4994 Y.7076
X1.0943 Y.7066
G2 X1.2601 Y.697 I-.0118 J-1.6401
G1 X1.4897
G3 X1.6003 Y.7898 Z-1.56 I0. J.1123
X1.4897 Y.9215 I-.1106 J.0195 F400.
G1 X-1.4022
G3 X-1.5128 Y.7898 I0. J-.1122
X-1.4022 Y.697 Z-1.6 I.1106 J.0195 F51.7
G1 X1.2671
G3 X1.3123 Y.7065 Z-1.5841 I0. J.1123
G1 X1.3772 Y.7351 Z-1.56
G0 Z1.
X1.8354 Y-.7641
Z-1.05
G1 Z-1.56 F25.8
X1.7257 Y-.731 F400.
X1.6202 Y-.6991 Z-1.5881 F51.7
G3 X1.5742 Y-.6951 Z-1.6 I-.0324 J-.1074
G2 X1.5045 Y-.697 I-.0497 J.5441
G1 X1.4854
G3 X1.1257 Y-.6982 I-.0956 J-26.052
X.9729 Y-.7016 I1.243 J-58.8332
G2 X.1463 Y-.7073 I-.6974 J40.9014
G1 X-1.081 Y-.7068
G2 X-1.2552 Y-.697 I.0048 J1.6415
G1 X-1.4848
G3 X-1.5954 Y-.7898 Z-1.56 I0. J-.1123
X-1.4848 Y-.9215 I.1106 J-.0195 F400.
G1 X1.2301
G3 X1.3406 Y-.7898 I0. J.1122
X1.2301 Y-.697 Z-1.6 I-.1105 J-.0195 F51.7
G1 X-1.267
G3 X-1.3123 Y-.7065 Z-1.5841 I0. J-.1123
G1 X-1.3771 Y-.7351 Z-1.56
G0 Z1.
X-1.7959 Y-1.0629
Z-1.55
G1 Z-2.06 F25.8
X-1.8477 Y-.9294 F51.7
X-1.8877 Y-.8266 Z-2.0881
G3 X-1.9129 Y-.7879 Z-2.1 I-.1046 J-.0407
G2 X-1.9839 Y-.6924 I.6771 J.5771
X-2.0564 Y-.4732 I.4295 J.2637
X-2.062 Y-.2865 I1.86 J.1495
X-2.0597 Y-.0068 I87.7069 J-.5823
G1 X-2.056 Y.3705
G2 X-2.0192 Y.5695 I.6048 J-.0089
X-1.8386 Y.8076 I.5063 J-.1963
X-1.6282 Y.8965 I.2952 J-.4057
X-1.4302 Y.9153 I.2188 J-1.2481
X-1.0661 Y.9158 I.1966 J-10.7912
G1 X-.0465 Y.9074
X1.471 Y.9063
G2 X1.6741 Y.8685 I-.0124 J-.6315
X1.8965 Y.7103 I-.1845 J-.4949
X1.9897 Y.5243 I-.3839 J-.3086
X2.0216 Y.3208 I-1.0424 J-.2678
X2.0311 Y.0024 I-5.1585 J-.3128
Y-.3504 I-21.3238 J-.1754
X1.9916 Y-.554 I-.6232 J.0152
X1.8528 Y-.7566 I-.4987 J.1927
X1.6571 Y-.8625 I-.3235 J.3643
X1.4525 Y-.8961 I-.2698 J1.0028
X1.1336 Y-.906 I-.3134 J4.934
X.5772 Y-.9071 I-.4522 J94.9363
G1 X-1.3554
G2 X-1.5017 Y-.9047 I-.0288 J2.7452
X-1.7077 Y-.8544 I.0334 J.5833
X-1.9733 Y-.546 I.2054 J.4455
X-2.0081 Y-.3604 I.8883 J.2626
X-2.0186 Y-.0762 I3.349 J.2655
X-2.0161 Y.2951 I18.6167 J.0633
X-1.9926 Y.4658 I.7707 J-.0191
X-1.876 Y.6831 I.506 J-.1316
X-1.6915 Y.808 I.3643 J-.3394
X-1.4816 Y.8591 I.3021 J-.7856
X-1.2132 Y.8741 I.2731 J-2.4685
X-.5775 Y.8715 I.1579 J-38.3476
G1 X-.5583 Y.8713
G3 X.6263 Y.8672 I.9384 J99.229
G1 X1.3768 Y.8665
G2 X1.568 Y.843 I-.0048 J-.8263
X1.7766 Y.7362 I-.1236 J-.4987
X1.9118 Y.5447 I-.3377 J-.3819
X1.9667 Y.3371 I-.8016 J-.323
X1.9874 Y.068 I-2.3233 J-.314
X1.9905 Y-.2686 I-8.7211 J-.2498
X1.9621 Y-.4633 I-.7566 J.0112
X1.8451 Y-.6692 I-.4807 J.137
X1.6742 Y-.7849 I-.3701 J.3626
X1.4662 Y-.8411 I-.3243 J.787
X1.1967 Y-.8623 I-.3146 J2.2759
X.6552 Y-.867 I-.4607 J21.6071
G1 X-1.2776 Y-.8672
G2 X-1.445 Y-.8632 I-.0315 J2.2107
X-1.6473 Y-.8148 I.04 J.614
X-1.8663 Y-.6178 I.1921 J.4338
X-1.9395 Y-.4284 I.5908 J.3371
X-1.9707 Y-.1896 I1.3814 J.3021
X-1.9747 Y.2519 I5.7732 J.273
X-1.9408 Y.4468 I.7495 J-.0301
X-1.7372 Y.7077 I.4597 J-.1489
X-1.5268 Y.7934 I.3597 J-.5814
X-1.2882 Y.826 I.3104 J-1.3818
X-.932 Y.8336 I.3038 J-5.9408
X-.3566 Y.8296 I-.3836 J-96.9058
G3 X.4264 Y.8273 I.6786 J98.0216
G1 X1.2905 Y.8267
G2 X1.4726 Y.811 I-.0015 J-1.0804
X1.6748 Y.7304 I-.0908 J-.5216
X1.8379 Y.5451 I-.2885 J-.4185
X1.9108 Y.3379 I-.6937 J-.3604
X1.942 Y.0831 I-1.7042 J-.3383
X1.9482 Y-.2216 I-3.9568 J-.2334
X1.9184 Y-.4159 I-.7734 J.0192
X1.7218 Y-.6815 I-.4664 J.1398
X1.514 Y-.7734 I-.3764 J.5701
X1.275 Y-.8122 I-.3378 J1.3248
X.9367 Y-.8252 I-.3565 J4.8603
X.1116 Y-.8272 I-.643 J96.8476
G1 X-1.2882 Y-.8267
G2 X-1.4711 Y-.8109 I-.0009 J1.0564
X-1.6742 Y-.726 I.0904 J.5012
X-1.8327 Y-.5377 I.3022 J.4153
X-1.9021 Y-.3302 I.7123 J.3536
X-1.9305 Y-.0757 I1.7371 J.3224
X-1.9333 Y.1908 I3.222 J.1677
X-1.9093 Y.3594 I.8246 J-.0314
X-1.7039 Y.6481 I.4819 J-.1254
X-1.4972 Y.7408 I.383 J-.577
X-1.2572 Y.7807 I.3359 J-1.2807
X-.9177 Y.7924 I.3224 J-4.4259
X-.2077 Y.7888 I.0257 J-64.9599
G3 X.1934 Y.7876 I.4866 J96.9976
G1 X1.23 Y.7865
G2 X1.41 Y.7716 I-.007 J-1.1832
X1.6248 Y.6854 I-.0865 J-.5259
G3 X1.635 Y.6801 I.0279 J.0413
G2 X1.7398 Y.6075 I-.1005 J-.2571
X1.8119 Y.4932 I-.1922 J-.2012
X1.8829 Y.2124 I-1.1435 J-.4385
X1.9044 Y-.1842 I-2.4911 J-.334
X1.8776 Y-.3568 I-.7401 J.0267
X1.8115 Y-.4963 I-.4769 J.1404
G3 X1.8063 Y-.5068 I.0417 J-.0276
G2 X1.7325 Y-.6148 I-.2566 J.096
X1.6179 Y-.687 I-.2013 J.1923
X1.3371 Y-.758 I-.4385 J1.1452
X1.0315 Y-.7813 I-.3729 J2.8705
X.4708 Y-.7871 I-.4894 J20.2555
G1 X-1.2162 Y-.7867
G2 X-1.3949 Y-.7737 I.0005 J1.2385
X-1.61 Y-.6904 I.0796 J.5251
G3 X-1.6222 Y-.6845 I-.0275 J-.0416
G2 X-1.7398 Y-.6075 I.0858 J.2592
X-1.8105 Y-.4942 I.1793 J.1906
X-1.8794 Y-.156 I1.4459 J.4705
X-1.8904 Y.1363 I2.3556 J.2351
X-1.8666 Y.307 I.7814 J-.022
X-1.8267 Y.4099 I.504 J-.1363
G3 X-1.8217 Y.4294 I-.0449 J.0217
G2 X-1.7325 Y.6148 I.2653 J-.0136
X-1.5581 Y.6973 I.1934 J-.1832
G3 X-1.4461 Y.7148 I-1.7687 J11.7118
G2 X-1.0231 Y.7492 I.4711 J-3.1785
X-.4623 Y.7505 I.3258 J-19.5034
G1 X.3785 Y.7475
X1.1464 Y.7468
G2 X1.3203 Y.7364 I-.0032 J-1.5186
X1.4676 Y.6999 I-.084 J-.6549
G3 X1.4845 Y.697 I.0169 J.047
G1 X1.5036
G2 X1.5809 Y.6942 I.0195 J-.5268
X1.6182 Y.6858 I-.0381 J-.2567
G3 X1.6643 Y.6817 Z-2.0879 I.0327 J.1074
G1 X1.7054 Y.6867 Z-2.0771
G2 X1.7307 Y.6832 Z-2.0704 I.006 J-.0495
G1 X1.7354 Y.6812 Z-2.0691
G2 X1.7625 Y.66 Z-2.06 I-.0254 J-.0604
X1.7753 Y.6258 Z-2.0718 I-.0525 J-.0392
G1 X1.7785 Y.5845 Z-2.0851
G3 X1.7914 Y.5401 Z-2.1 I.1119 J.0085
G2 X1.822 Y.4208 I-.2289 J-.1223
G3 X1.8373 Y.2652 I2.2874 J.146
G2 X1.8614 Y-.0578 I-3.4577 J-.4212
X1.8484 Y-.2454 I-.9484 J-.0285
X1.8245 Y-.3347 I-.645 J.1249
G3 X1.822 Y-.3503 I.0474 J-.0156
G1 Y-.3694
G2 X1.8213 Y-.4369 I-1.393 J-.0192
X1.8108 Y-.4932 I-.2588 J.0191
G3 X1.8674 Y-.626 Z-2.06 I.1074 J-.0327
X2.0305 Y-.5274 I.0508 J.1001 F400.
G1 X2.0438 Y.4615
G3 X1.8987 Y.5704 I-.1123 J.0015
X1.8201 Y.4494 Z-2.1 I.0328 J-.1074 F51.7
G2 X1.822 Y.3795 I-.5396 J-.0499
G1 Y-.3739
G3 X1.8315 Y-.4191 Z-2.0881 I.1123 J0.
G1 X1.855 Y-.4725 Z-2.0732
G2 X1.8644 Y-.523 Z-2.06 I-.1027 J-.0452
X1.8534 Y-.5665 I-.1121 J.0053 F400.
G1 X1.8433 Y-.5873
G2 X1.8135 Y-.6253 I-.1011 J.0488
X1.7506 Y-.6505 Z-2.0775 I-.0713 J.0868 F51.7
G1 X1.7093 Y-.6536 Z-2.0881
G3 X1.6649 Y-.6665 Z-2.1 I.0084 J-.112
G2 X1.5456 Y-.697 I-.1221 J.229
G3 X1.3899 Y-.7123 I.1471 J-2.2968
G2 X.8762 Y-.7437 I-.5613 J4.9583
X.0691 Y-.7473 I-.6531 J56.068
G1 X-1.1387 Y-.7469
G2 X-1.3128 Y-.7369 I-.0007 J1.5122
X-1.462 Y-.6998 I.0864 J.667
G3 X-1.4786 Y-.697 I-.0166 J-.0471
G1 X-1.4977
G2 X-1.5619 Y-.6963 I-.0191 J1.1873
X-1.5998 Y-.6907 I.0191 J.2588
G3 X-1.646 Y-.69 Z-2.0881 I-.0246 J-.1095
G1 X-1.6866 Y-.698 Z-2.0775
G2 X-1.7516 Y-.6828 Z-2.06 I-.0156 J.0796
X-1.7652 Y-.6695 I.0494 J.0644 F400.
G1 X-1.7654 Y-.6693 Z-2.0601 F51.7
X-1.7736 Y-.6591 Z-2.0634
G2 X-1.7915 Y-.6078 Z-2.0775 I.0632 J.0509
G1 X-1.7913 Y-.5664 Z-2.0881
G3 X-1.8006 Y-.5211 Z-2.1 I-.1123 J.0006
G2 X-1.822 Y-.3987 I.2562 J.108
G3 X-1.8321 Y-.2436 I-2.0883 J-.058
G2 X-1.8476 Y.0391 I3.5484 J.3363
X-1.83 Y.2282 I.8804 J.0133
X-1.8234 Y.2563 I1.131 J-.2489
G3 X-1.822 Y.2872 I-.1066 J.0204
G1 Y.3064
G2 X-1.8213 Y.4369 I5.0067 J.0382
G3 X-1.9057 Y.554 Z-2.06 I-.112 J.0083
X-2.0455 Y.4453 I-.0276 J-.1088 F400.
G1 X-2.0464 Y-.4295
G3 X-1.9111 Y-.5395 I.1123 J-.0001
X-1.8219 Y-.426 Z-2.1 I-.023 J.1099 F51.7
G2 X-1.822 Y-.1869 I96.5242 J.1722
G1 Y.2915
G3 X-1.8315 Y.3368 Z-2.0881 I-.1123 J0.
G1 X-1.8601 Y.4016 Z-2.07
G2 X-1.8694 Y.4396 Z-2.06 I.1028 J.0452
X-1.8636 Y.4831 I.1121 J.0072 F400.
G1 X-1.8162 Y.6222
G2 X-1.7567 Y.688 I.1063 J-.0362
X-1.6895 Y.6964 Z-2.0775 I.0468 J-.102 F51.7
G1 X-1.6488 Y.6889 Z-2.0881
G3 X-1.6026 Y.69 Z-2.1 I.0204 J.1104
G2 X-1.5237 Y.697 I.0656 J-.2922
G1 X-1.5045
G3 X-1.1543 Y.7044 I.064 J5.2328
G2 X-.5536 Y.7109 I.4513 J-14.0876
X-.4578 Y.7104 I-.4522 J-97.3949
G1 X.4994 Y.7076
X1.0943 Y.7066
G2 X1.2601 Y.697 I-.0118 J-1.6401
G1 X1.4897
G3 X1.6003 Y.7898 Z-2.06 I0. J.1123
X1.4897 Y.9215 I-.1106 J.0195 F400.
G1 X-1.4022
G3 X-1.5128 Y.7898 I0. J-.1122
X-1.4022 Y.697 Z-2.1 I.1106 J.0195 F51.7
G1 X1.2671
G3 X1.3123 Y.7065 Z-2.0841 I0. J.1123
G1 X1.3772 Y.7351 Z-2.06
G0 Z1.
X1.8354 Y-.7641
Z-1.55
G1 Z-2.06 F25.8
X1.7257 Y-.731 F400.
X1.6202 Y-.6991 Z-2.0881 F51.7
G3 X1.5742 Y-.6951 Z-2.1 I-.0324 J-.1074
G2 X1.5045 Y-.697 I-.0497 J.5441
G1 X1.4854
G3 X1.1257 Y-.6982 I-.0956 J-26.052
X.9729 Y-.7016 I1.243 J-58.8332
G2 X.1463 Y-.7073 I-.6974 J40.9014
G1 X-1.081 Y-.7068
G2 X-1.2552 Y-.697 I.0048 J1.6415
G1 X-1.4848
G3 X-1.5954 Y-.7898 Z-2.06 I0. J-.1123
X-1.4848 Y-.9215 I.1106 J-.0195 F400.
G1 X1.2301
G3 X1.3406 Y-.7898 I0. J.1122
X1.2301 Y-.697 Z-2.1 I-.1105 J-.0195 F51.7
G1 X-1.267
G3 X-1.3123 Y-.7065 Z-2.0841 I0. J-.1123
G1 X-1.3771 Y-.7351 Z-2.06
G0 Z1.
G53 Z0. M9
M01 G53 G90 G00 X-24.
(MINI)
T12 M6
;
G0 G90 G17 G54 X1.7541 Y-.9975 S2363 M3
G43 H12 Z1. T3
M8
Z-2.05
G1 Z-2.1 F29.3
G41 D12 Y-.9475 F58.6
X-1.5428 Z-2.1082
G2 X-1.9034 Y-.7981 Z-2.1092 I0. J.51
G1 X-1.9231 Y-.7784 Z-2.1093
G2 X-2.0725 Y-.4178 Z-2.1103 I.3606 J.3606
G1 Y.6291 Z-2.1129
X-1.9034 Y.7981 Z-2.1135
G2 X-1.5428 Y.9475 Z-2.1145 I.3606 J-.3606
G1 X1.5428 Z-2.1222
G2 X1.9034 Y.7981 Z-2.1232 I0. J-.51
G1 X1.9231 Y.7784 Z-2.1233
G2 X2.0725 Y.4178 Z-2.1243 I-.3606 J-.3606
G1 Y-.4178 Z-2.1264
G2 X1.9231 Y-.7784 Z-2.1274 I-.51 J0.
G1 X1.7541 Y-.9475 Z-2.128
X-1.5428 Z-2.1362
G2 X-1.9034 Y-.7981 Z-2.1372 I0. J.51
G1 X-1.9231 Y-.7784 Z-2.1373
G2 X-2.0725 Y-.4178 Z-2.1383 I.3606 J.3606
G1 Y.6291 Z-2.1409
X-1.9034 Y.7981 Z-2.1415
G2 X-1.5428 Y.9475 Z-2.1425 I.3606 J-.3606
G1 X1.5428 Z-2.1502
G2 X1.9034 Y.7981 Z-2.1512 I0. J-.51
G1 X1.9231 Y.7784 Z-2.1513
G2 X2.0725 Y.4178 Z-2.1523 I-.3606 J-.3606
G1 Y-.4178 Z-2.1544
G2 X1.9231 Y-.7784 Z-2.1554 I-.51 J0.
G1 X1.7541 Y-.9475 Z-2.156
X-1.5428 Z-2.1642
G2 X-1.9034 Y-.7981 Z-2.1652 I0. J.51
G1 X-1.9231 Y-.7784 Z-2.1653
G2 X-2.0725 Y-.4178 Z-2.1663 I.3606 J.3606
G1 Y.6291 Z-2.1689
X-1.9034 Y.7981 Z-2.1695
G2 X-1.5428 Y.9475 Z-2.1705 I.3606 J-.3606
G1 X1.5428 Z-2.1782
G2 X1.9034 Y.7981 Z-2.1792 I0. J-.51
G1 X1.9231 Y.7784 Z-2.1793
G2 X2.0725 Y.4178 Z-2.1803 I-.3606 J-.3606
G1 Y-.4178 Z-2.1824
G2 X1.9231 Y-.7784 Z-2.1834 I-.51 J0.
G1 X1.7541 Y-.9475 Z-2.184
X-1.5428 Z-2.1922
G2 X-1.9034 Y-.7981 Z-2.1932 I0. J.51
G1 X-1.9231 Y-.7784 Z-2.1933
G2 X-2.0725 Y-.4178 Z-2.1943 I.3606 J.3606
G1 Y.6291 Z-2.1969
X-1.9034 Y.7981 Z-2.1975
G2 X-1.5428 Y.9475 Z-2.1985 I.3606 J-.3606
G1 X1.5428 Z-2.2062
G2 X1.9034 Y.7981 Z-2.2072 I0. J-.51
G1 X1.9231 Y.7784 Z-2.2073
G2 X2.0725 Y.4178 Z-2.2083 I-.3606 J-.3606
G1 Y-.4178 Z-2.2104
G2 X1.9231 Y-.7784 Z-2.2114 I-.51 J0.
G1 X1.7541 Y-.9475 Z-2.212
X-1.5428 Z-2.2202
G2 X-1.9034 Y-.7981 Z-2.2212 I0. J.51
G1 X-1.9231 Y-.7784 Z-2.2213
G2 X-2.0725 Y-.4178 Z-2.2223 I.3606 J.3606
G1 Y.6291 Z-2.2249
X-1.9034 Y.7981 Z-2.2255
G2 X-1.5428 Y.9475 Z-2.2265 I.3606 J-.3606
G1 X1.5428 Z-2.2342
G2 X1.9034 Y.7981 Z-2.2352 I0. J-.51
G1 X1.9231 Y.7784 Z-2.2353
G2 X2.0725 Y.4178 Z-2.2363 I-.3606 J-.3606
G1 Y-.4178 Z-2.2384
G2 X1.9231 Y-.7784 Z-2.2394 I-.51 J0.
G1 X1.7541 Y-.9475 Z-2.24
X-1.5428 Z-2.2482
G2 X-1.9034 Y-.7981 Z-2.2492 I0. J.51
G1 X-1.9231 Y-.7784 Z-2.2493
G2 X-2.0725 Y-.4178 Z-2.2503 I.3606 J.3606
G1 Y.6291 Z-2.2529
X-1.9034 Y.7981 Z-2.2535
G2 X-1.5428 Y.9475 Z-2.2545 I.3606 J-.3606
G1 X1.5428 Z-2.2622
G2 X1.9034 Y.7981 Z-2.2632 I0. J-.51
G1 X1.9231 Y.7784 Z-2.2633
G2 X2.0725 Y.4178 Z-2.2643 I-.3606 J-.3606
G1 Y-.4178 Z-2.2664
G2 X1.9231 Y-.7784 Z-2.2674 I-.51 J0.
G1 X1.7541 Y-.9475 Z-2.268
X-1.5428 Z-2.2762
G2 X-1.9034 Y-.7981 Z-2.2772 I0. J.51
G1 X-1.9231 Y-.7784 Z-2.2773
G2 X-2.0725 Y-.4178 Z-2.2783 I.3606 J.3606
G1 Y.6291 Z-2.2809
X-1.9034 Y.7981 Z-2.2815
G2 X-1.5428 Y.9475 Z-2.2825 I.3606 J-.3606
G1 X1.5428 Z-2.2902
G2 X1.9034 Y.7981 Z-2.2912 I0. J-.51
G1 X1.9231 Y.7784 Z-2.2913
G2 X2.0725 Y.4178 Z-2.2923 I-.3606 J-.3606
G1 Y-.4178 Z-2.2944
G2 X1.9231 Y-.7784 Z-2.2954 I-.51 J0.
G1 X1.7541 Y-.9475 Z-2.296
X-1.5428 Z-2.3042
G2 X-1.9034 Y-.7981 Z-2.3052 I0. J.51
G1 X-1.9231 Y-.7784 Z-2.3053
G2 X-2.0725 Y-.4178 Z-2.3063 I.3606 J.3606
G1 Y.6291 Z-2.3089
X-1.9034 Y.7981 Z-2.3095
G2 X-1.5428 Y.9475 Z-2.3105 I.3606 J-.3606
G1 X1.5428 Z-2.3182
G2 X1.9034 Y.7981 Z-2.3192 I0. J-.51
G1 X1.9231 Y.7784 Z-2.3193
G2 X2.0725 Y.4178 Z-2.3203 I-.3606 J-.3606
G1 Y-.4178 Z-2.3224
G2 X1.9231 Y-.7784 Z-2.3234 I-.51 J0.
G1 X1.7541 Y-.9475 Z-2.324
X-1.5428 Z-2.3322
G2 X-1.9034 Y-.7981 Z-2.3332 I0. J.51
G1 X-1.9231 Y-.7784 Z-2.3333
G2 X-2.0725 Y-.4178 Z-2.3343 I.3606 J.3606
G1 Y.6291 Z-2.3369
X-1.9034 Y.7981 Z-2.3375
G2 X-1.5428 Y.9475 Z-2.3385 I.3606 J-.3606
G1 X1.5428 Z-2.3462
G2 X1.9034 Y.7981 Z-2.3472 I0. J-.51
G1 X1.9231 Y.7784 Z-2.3473
G2 X2.0725 Y.4178 Z-2.3483 I-.3606 J-.3606
G1 Y-.4178 Z-2.3504
G2 X1.9231 Y-.7784 Z-2.3514 I-.51 J0.
G1 X1.7541 Y-.9475 Z-2.352
X-1.5428 Z-2.3602
G2 X-1.9034 Y-.7981 Z-2.3612 I0. J.51
G1 X-1.9231 Y-.7784 Z-2.3613
G2 X-2.0725 Y-.4178 Z-2.3623 I.3606 J.3606
G1 Y.6291 Z-2.3649
X-1.9034 Y.7981 Z-2.3655
G2 X-1.5428 Y.9475 Z-2.3665 I.3606 J-.3606
G1 X1.5428 Z-2.3742
G2 X1.9034 Y.7981 Z-2.3752 I0. J-.51
G1 X1.9231 Y.7784 Z-2.3753
G2 X2.0725 Y.4178 Z-2.3763 I-.3606 J-.3606
G1 Y-.4178 Z-2.3784
G2 X1.9231 Y-.7784 Z-2.3794 I-.51 J0.
G1 X1.7541 Y-.9475 Z-2.38
X-1.5428 Z-2.3882
G2 X-1.9034 Y-.7981 Z-2.3892 I0. J.51
G1 X-1.9231 Y-.7784 Z-2.3893
G2 X-2.0725 Y-.4178 Z-2.3903 I.3606 J.3606
G1 Y.6291 Z-2.3929
X-1.9034 Y.7981 Z-2.3935
G2 X-1.5428 Y.9475 Z-2.3945 I.3606 J-.3606
G1 X1.5428 Z-2.4022
G2 X1.9034 Y.7981 Z-2.4032 I0. J-.51
G1 X1.9231 Y.7784 Z-2.4033
G2 X2.0725 Y.4178 Z-2.4043 I-.3606 J-.3606
G1 Y-.4178 Z-2.4064
G2 X1.9231 Y-.7784 Z-2.4074 I-.51 J0.
G1 X1.7541 Y-.9475 Z-2.408
X-1.5428 Z-2.4162
G2 X-1.9034 Y-.7981 Z-2.4172 I0. J.51
G1 X-1.9231 Y-.7784 Z-2.4173
G2 X-2.0725 Y-.4178 Z-2.4183 I.3606 J.3606
G1 Y.6291 Z-2.4209
X-1.9034 Y.7981 Z-2.4215
G2 X-1.5428 Y.9475 Z-2.4225 I.3606 J-.3606
G1 X1.5428 Z-2.4302
G2 X1.9034 Y.7981 Z-2.4312 I0. J-.51
G1 X1.9231 Y.7784 Z-2.4313
G2 X2.0725 Y.4178 Z-2.4323 I-.3606 J-.3606
G1 Y-.4178 Z-2.4344
G2 X1.9231 Y-.7784 Z-2.4354 I-.51 J0.
G1 X1.7541 Y-.9475 Z-2.436
X-1.5428 Z-2.4442
G2 X-1.9034 Y-.7981 Z-2.4452 I0. J.51
G1 X-1.9231 Y-.7784 Z-2.4453
G2 X-2.0725 Y-.4178 Z-2.4463 I.3606 J.3606
G1 Y.6291 Z-2.4489
X-1.9034 Y.7981 Z-2.4495
G2 X-1.5428 Y.9475 Z-2.4505 I.3606 J-.3606
G1 X1.5428 Z-2.4582
G2 X1.9034 Y.7981 Z-2.4592 I0. J-.51
G1 X1.9231 Y.7784 Z-2.4593
G2 X2.0725 Y.4178 Z-2.4603 I-.3606 J-.3606
G1 Y-.4178 Z-2.4624
G2 X1.9231 Y-.7784 Z-2.4634 I-.51 J0.
G1 X1.7541 Y-.9475 Z-2.464
X-1.5428 Z-2.4722
G2 X-1.9034 Y-.7981 Z-2.4732 I0. J.51
G1 X-1.9231 Y-.7784 Z-2.4733
G2 X-2.0725 Y-.4178 Z-2.4743 I.3606 J.3606
G1 Y.6291 Z-2.4769
X-1.9034 Y.7981 Z-2.4775
G2 X-1.5428 Y.9475 Z-2.4785 I.3606 J-.3606
G1 X1.5428 Z-2.4862
G2 X1.9034 Y.7981 Z-2.4872 I0. J-.51
G1 X1.9231 Y.7784 Z-2.4873
G2 X2.0725 Y.4178 Z-2.4883 I-.3606 J-.3606
G1 Y-.4178 Z-2.4904
G2 X1.9231 Y-.7784 Z-2.4914 I-.51 J0.
G1 X1.7541 Y-.9475 Z-2.492
X-1.5428 Z-2.5002
G2 X-1.9034 Y-.7981 Z-2.5012 I0. J.51
G1 X-1.9231 Y-.7784 Z-2.5013
G2 X-2.0725 Y-.4178 Z-2.5023 I.3606 J.3606
G1 Y.6291 Z-2.5049
X-1.9034 Y.7981 Z-2.5055
G2 X-1.5428 Y.9475 Z-2.5065 I.3606 J-.3606
G1 X1.5428 Z-2.5142
G2 X1.9034 Y.7981 Z-2.5152 I0. J-.51
G1 X1.9231 Y.7784 Z-2.5153
G2 X2.0725 Y.4178 Z-2.5163 I-.3606 J-.3606
G1 Y-.4178 Z-2.5184
G2 X1.9231 Y-.7784 Z-2.5194 I-.51 J0.
G1 X1.7541 Y-.9475 Z-2.52
X-1.5428 Z-2.5282
G2 X-1.9034 Y-.7981 Z-2.5292 I0. J.51
G1 X-1.9231 Y-.7784 Z-2.5293
G2 X-2.0725 Y-.4178 Z-2.5303 I.3606 J.3606
G1 Y.6291 Z-2.5329
X-1.9034 Y.7981 Z-2.5335
G2 X-1.5428 Y.9475 Z-2.5345 I.3606 J-.3606
G1 X1.5428 Z-2.5422
G2 X1.9034 Y.7981 Z-2.5432 I0. J-.51
G1 X1.9231 Y.7784 Z-2.5433
G2 X2.0725 Y.4178 Z-2.5443 I-.3606 J-.3606
G1 Y-.4178 Z-2.5464
G2 X1.9231 Y-.7784 Z-2.5474 I-.51 J0.
G1 X1.7541 Y-.9475 Z-2.548
X-1.5428 Z-2.5562
G2 X-1.9034 Y-.7981 Z-2.5572 I0. J.51
G1 X-1.9231 Y-.7784 Z-2.5573
G2 X-2.0725 Y-.4178 Z-2.5583 I.3606 J.3606
G1 Y.6291 Z-2.5609
X-1.9034 Y.7981 Z-2.5615
G2 X-1.5428 Y.9475 Z-2.5625 I.3606 J-.3606
G1 X1.5428 Z-2.5702
G2 X1.9034 Y.7981 Z-2.5712 I0. J-.51
G1 X1.9231 Y.7784 Z-2.5713
G2 X2.0725 Y.4178 Z-2.5723 I-.3606 J-.3606
G1 Y-.4178 Z-2.5744
G2 X1.9231 Y-.7784 Z-2.5754 I-.51 J0.
G1 X1.7541 Y-.9475 Z-2.576
X-1.5428 Z-2.5842
G2 X-1.9034 Y-.7981 Z-2.5852 I0. J.51
G1 X-1.9231 Y-.7784 Z-2.5853
G2 X-2.0725 Y-.4178 Z-2.5863 I.3606 J.3606
G1 Y.6291 Z-2.5889
X-1.9034 Y.7981 Z-2.5895
G2 X-1.5428 Y.9475 Z-2.5905 I.3606 J-.3606
G1 X1.5428 Z-2.5982
G2 X1.9034 Y.7981 Z-2.5992 I0. J-.51
G1 X1.9231 Y.7784 Z-2.5993
G2 X2.0725 Y.4178 Z-2.6003 I-.3606 J-.3606
G1 Y-.4178 Z-2.6024
G2 X1.9231 Y-.7784 Z-2.6034 I-.51 J0.
G1 X1.7541 Y-.9475 Z-2.604
X-1.5428 Z-2.6122
G2 X-1.9034 Y-.7981 Z-2.6132 I0. J.51
G1 X-1.9231 Y-.7784 Z-2.6133
G2 X-2.0725 Y-.4178 Z-2.6143 I.3606 J.3606
G1 Y.6291 Z-2.6169
X-1.9034 Y.7981 Z-2.6175
G2 X-1.5428 Y.9475 Z-2.6185 I.3606 J-.3606
G1 X1.5428 Z-2.6262
G2 X1.9034 Y.7981 Z-2.6272 I0. J-.51
G1 X1.9231 Y.7784 Z-2.6273
G2 X2.0725 Y.4178 Z-2.6283 I-.3606 J-.3606
G1 Y-.4178 Z-2.6304
G2 X1.9231 Y-.7784 Z-2.6314 I-.51 J0.
G1 X1.7541 Y-.9475 Z-2.632
X-1.5428 Z-2.6402
G2 X-1.9034 Y-.7981 Z-2.6412 I0. J.51
G1 X-1.9231 Y-.7784 Z-2.6413
G2 X-2.0725 Y-.4178 Z-2.6423 I.3606 J.3606
G1 Y.6291 Z-2.6449
X-1.9034 Y.7981 Z-2.6455
G2 X-1.5428 Y.9475 Z-2.6465 I.3606 J-.3606
G1 X1.5428 Z-2.6542
G2 X1.9034 Y.7981 Z-2.6552 I0. J-.51
G1 X1.9231 Y.7784 Z-2.6553
G2 X2.0725 Y.4178 Z-2.6563 I-.3606 J-.3606
G1 Y-.4178 Z-2.6584
G2 X1.9231 Y-.7784 Z-2.6594 I-.51 J0.
G1 X1.7541 Y-.9475 Z-2.66
X-1.5428 Z-2.6682
G2 X-1.9034 Y-.7981 Z-2.6692 I0. J.51
G1 X-1.9231 Y-.7784 Z-2.6693
G2 X-2.0725 Y-.4178 Z-2.6703 I.3606 J.3606
G1 Y.6291 Z-2.6729
X-1.9034 Y.7981 Z-2.6735
G2 X-1.5428 Y.9475 Z-2.6745 I.3606 J-.3606
G1 X1.5428 Z-2.6822
G2 X1.9034 Y.7981 Z-2.6832 I0. J-.51
G1 X1.9231 Y.7784 Z-2.6833
G2 X2.0725 Y.4178 Z-2.6843 I-.3606 J-.3606
G1 Y-.4178 Z-2.6864
G2 X1.9231 Y-.7784 Z-2.6874 I-.51 J0.
G1 X1.7541 Y-.9475 Z-2.688
X-1.5428 Z-2.6962
G2 X-1.9034 Y-.7981 Z-2.6972 I0. J.51
G1 X-1.9231 Y-.7784 Z-2.6973
G2 X-2.0725 Y-.4178 Z-2.6983 I.3606 J.3606
G1 Y.6291 Z-2.7009
X-1.9034 Y.7981 Z-2.7015
G2 X-1.5428 Y.9475 Z-2.7025 I.3606 J-.3606
G1 X1.5428 Z-2.7102
G2 X1.9034 Y.7981 Z-2.7112 I0. J-.51
G1 X1.9231 Y.7784 Z-2.7113
G2 X2.0725 Y.4178 Z-2.7123 I-.3606 J-.3606
G1 Y-.4178 Z-2.7144
G2 X1.9231 Y-.7784 Z-2.7154 I-.51 J0.
G1 X1.7541 Y-.9475 Z-2.716
X-1.5428 Z-2.7242
G2 X-1.9034 Y-.7981 Z-2.7252 I0. J.51
G1 X-1.9231 Y-.7784 Z-2.7253
G2 X-2.0725 Y-.4178 Z-2.7263 I.3606 J.3606
G1 Y.6291 Z-2.7289
X-1.9034 Y.7981 Z-2.7295
G2 X-1.5428 Y.9475 Z-2.7305 I.3606 J-.3606
G1 X1.5428 Z-2.7382
G2 X1.9034 Y.7981 Z-2.7392 I0. J-.51
G1 X1.9231 Y.7784 Z-2.7393
G2 X2.0725 Y.4178 Z-2.7403 I-.3606 J-.3606
G1 Y-.4178 Z-2.7424
G2 X1.9231 Y-.7784 Z-2.7434 I-.51 J0.
G1 X1.7541 Y-.9475 Z-2.744
X-1.5428 Z-2.7522
G2 X-1.9034 Y-.7981 Z-2.7532 I0. J.51
G1 X-1.9231 Y-.7784 Z-2.7533
G2 X-2.0725 Y-.4178 Z-2.7543 I.3606 J.3606
G1 Y.6291 Z-2.7569
X-1.9034 Y.7981 Z-2.7575
G2 X-1.5428 Y.9475 Z-2.7585 I.3606 J-.3606
G1 X1.5428 Z-2.7662
G2 X1.9034 Y.7981 Z-2.7672 I0. J-.51
G1 X1.9231 Y.7784 Z-2.7673
G2 X2.0725 Y.4178 Z-2.7683 I-.3606 J-.3606
G1 Y-.4178 Z-2.7704
G2 X1.9231 Y-.7784 Z-2.7714 I-.51 J0.
G1 X1.7541 Y-.9475 Z-2.772
X-1.5428 Z-2.7802
G2 X-1.9034 Y-.7981 Z-2.7812 I0. J.51
G1 X-1.9231 Y-.7784 Z-2.7813
G2 X-2.0725 Y-.4178 Z-2.7823 I.3606 J.3606
G1 Y.6291 Z-2.7849
X-1.9034 Y.7981 Z-2.7855
G2 X-1.5428 Y.9475 Z-2.7865 I.3606 J-.3606
G1 X1.5428 Z-2.7942
G2 X1.9034 Y.7981 Z-2.7952 I0. J-.51
G1 X1.9231 Y.7784 Z-2.7953
G2 X2.0725 Y.4178 Z-2.7963 I-.3606 J-.3606
G1 Y-.4178 Z-2.7984
G2 X1.9231 Y-.7784 Z-2.7994 I-.51 J0.
G1 X1.7541 Y-.9475 Z-2.8
X-1.5428 Z-2.8082
G2 X-1.9034 Y-.7981 Z-2.8092 I0. J.51
G1 X-1.9231 Y-.7784 Z-2.8093
G2 X-2.0725 Y-.4178 Z-2.8103 I.3606 J.3606
G1 Y.6291 Z-2.8129
X-1.9034 Y.7981 Z-2.8135
G2 X-1.5428 Y.9475 Z-2.8145 I.3606 J-.3606
G1 X1.5428 Z-2.8222
G2 X1.9034 Y.7981 Z-2.8232 I0. J-.51
G1 X1.9231 Y.7784 Z-2.8233
G2 X2.0725 Y.4178 Z-2.8243 I-.3606 J-.3606
G1 Y-.4178 Z-2.8264
G2 X1.9231 Y-.7784 Z-2.8274 I-.51 J0.
G1 X1.7541 Y-.9475 Z-2.828
X-1.5428 Z-2.8362
G2 X-1.9034 Y-.7981 Z-2.8372 I0. J.51
G1 X-1.9231 Y-.7784 Z-2.8373
G2 X-2.0725 Y-.4178 Z-2.8383 I.3606 J.3606
G1 Y.6291 Z-2.8409
X-1.9034 Y.7981 Z-2.8415
G2 X-1.5428 Y.9475 Z-2.8425 I.3606 J-.3606
G1 X1.5428 Z-2.8502
G2 X1.9034 Y.7981 Z-2.8512 I0. J-.51
G1 X1.9231 Y.7784 Z-2.8513
G2 X2.0725 Y.4178 Z-2.8523 I-.3606 J-.3606
G1 Y-.4178 Z-2.8544
G2 X1.9231 Y-.7784 Z-2.8554 I-.51 J0.
G1 X1.7541 Y-.9475 Z-2.856
X-1.5428 Z-2.8642
G2 X-1.9034 Y-.7981 Z-2.8652 I0. J.51
G1 X-1.9231 Y-.7784 Z-2.8653
G2 X-2.0725 Y-.4178 Z-2.8663 I.3606 J.3606
G1 Y.6291 Z-2.8689
X-1.9034 Y.7981 Z-2.8695
G2 X-1.5428 Y.9475 Z-2.8705 I.3606 J-.3606
G1 X1.5428 Z-2.8782
G2 X1.9034 Y.7981 Z-2.8792 I0. J-.51
G1 X1.9231 Y.7784 Z-2.8793
G2 X2.0725 Y.4178 Z-2.8803 I-.3606 J-.3606
G1 Y-.4178 Z-2.8824
G2 X1.9231 Y-.7784 Z-2.8834 I-.51 J0.
G1 X1.7541 Y-.9475 Z-2.884
X-1.5428 Z-2.8922
G2 X-1.9034 Y-.7981 Z-2.8932 I0. J.51
G1 X-1.9231 Y-.7784 Z-2.8933
G2 X-2.0725 Y-.4178 Z-2.8943 I.3606 J.3606
G1 Y.6291 Z-2.8969
X-1.9034 Y.7981 Z-2.8975
G2 X-1.5428 Y.9475 Z-2.8985 I.3606 J-.3606
G1 X1.5428 Z-2.9062
G2 X1.9034 Y.7981 Z-2.9072 I0. J-.51
G1 X1.9231 Y.7784 Z-2.9073
G2 X2.0725 Y.4178 Z-2.9083 I-.3606 J-.3606
G1 Y-.4178 Z-2.9104
G2 X1.9231 Y-.7784 Z-2.9114 I-.51 J0.
G1 X1.7541 Y-.9475 Z-2.912
X-1.5428 Z-2.9202
G2 X-1.9034 Y-.7981 Z-2.9212 I0. J.51
G1 X-1.9231 Y-.7784 Z-2.9213
G2 X-2.0725 Y-.4178 Z-2.9223 I.3606 J.3606
G1 Y.6291 Z-2.9249
X-1.9034 Y.7981 Z-2.9255
G2 X-1.5428 Y.9475 Z-2.9265 I.3606 J-.3606
G1 X1.5428 Z-2.9342
G2 X1.9034 Y.7981 Z-2.9352 I0. J-.51
G1 X1.9231 Y.7784 Z-2.9353
G2 X2.0725 Y.4178 Z-2.9363 I-.3606 J-.3606
G1 Y-.4178 Z-2.9384
G2 X1.9231 Y-.7784 Z-2.9394 I-.51 J0.
G1 X1.7541 Y-.9475 Z-2.94
X-1.5428 Z-2.9482
G2 X-1.9034 Y-.7981 Z-2.9492 I0. J.51
G1 X-1.9231 Y-.7784 Z-2.9493
G2 X-2.0725 Y-.4178 Z-2.9503 I.3606 J.3606
G1 Y.6291 Z-2.9529
X-1.9034 Y.7981 Z-2.9535
G2 X-1.5428 Y.9475 Z-2.9545 I.3606 J-.3606
G1 X1.5428 Z-2.9622
G2 X1.9034 Y.7981 Z-2.9632 I0. J-.51
G1 X1.9231 Y.7784 Z-2.9633
G2 X2.0725 Y.4178 Z-2.9643 I-.3606 J-.3606
G1 Y-.4178 Z-2.9664
G2 X1.9231 Y-.7784 Z-2.9674 I-.51 J0.
G1 X1.7541 Y-.9475 Z-2.968
X-1.5428 Z-2.9762
G2 X-1.9034 Y-.7981 Z-2.9772 I0. J.51
G1 X-1.9231 Y-.7784 Z-2.9773
G2 X-2.0725 Y-.4178 Z-2.9783 I.3606 J.3606
G1 Y.6291 Z-2.9809
X-1.9034 Y.7981 Z-2.9815
G2 X-1.5428 Y.9475 Z-2.9825 I.3606 J-.3606
G1 X1.5428 Z-2.9902
G2 X1.9034 Y.7981 Z-2.9912 I0. J-.51
G1 X1.9231 Y.7784 Z-2.9913
G2 X2.0725 Y.4178 Z-2.9923 I-.3606 J-.3606
G1 Y-.4178 Z-2.9944
G2 X1.9231 Y-.7784 Z-2.9954 I-.51 J0.
G1 X1.7541 Y-.9475 Z-2.996
X-1.5428 Z-3.0042
G2 X-1.9034 Y-.7981 Z-3.0052 I0. J.51
G1 X-1.9231 Y-.7784 Z-3.0053
G2 X-2.0725 Y-.4178 Z-3.0063 I.3606 J.3606
G1 Y.6291 Z-3.0089
X-1.9034 Y.7981 Z-3.0095
G2 X-1.5428 Y.9475 Z-3.0105 I.3606 J-.3606
G1 X1.5428 Z-3.0182
G2 X1.9034 Y.7981 Z-3.0192 I0. J-.51
G1 X1.9231 Y.7784 Z-3.0193
G2 X2.0725 Y.4178 Z-3.0203 I-.3606 J-.3606
G1 Y-.4178 Z-3.0224
G2 X1.9231 Y-.7784 Z-3.0234 I-.51 J0.
G1 X1.7541 Y-.9475 Z-3.024
X-.6464 Z-3.03
X-1.5428
G2 X-1.9034 Y-.7981 I0. J.51
G1 X-1.9231 Y-.7784
G2 X-2.0725 Y-.4178 I.3606 J.3606
G1 Y.6291
X-1.9034 Y.7981
G2 X-1.5428 Y.9475 I.3606 J-.3606
G1 X1.5428
G2 X1.9034 Y.7981 I0. J-.51
G1 X1.9231 Y.7784
G2 X2.0725 Y.4178 I-.3606 J-.3606
G1 Y-.4178
G2 X1.9231 Y-.7784 I-.51 J0.
G1 X1.7541 Y-.9475
X-.6764
G40 Y-.9975
Z-2.98 F29.3
G0 Z1.
G53 Z0. M9
M01 G53 G90 G00 X-24.
(.749 E)
T3 M6
;
G0 G90 G17 G54 X1.7 Y-.8545 S1147 M3
G43 H3 Z1. T11
M8
Z.05
G1 Z-1.51 F6.4
G41 D3 Y-.817 F12.8
X-1.5428
G2 X-1.8112 Y-.7058 I0. J.3795
G1 X-1.8308 Y-.6862
G2 X-1.942 Y-.4178 I.2683 J.2684
G1 Y.575
X-1.8112 Y.7058
G2 X-1.5428 Y.817 I.2684 J-.2683
G1 X1.5428
G2 X1.8112 Y.7058 I0. J-.3795
G1 X1.8308 Y.6862
G2 X1.942 Y.4178 I-.2683 J-.2684
G1 Y-.4178
G2 X1.8308 Y-.6862 I-.3795 J0.
G1 X1.7 Y-.817
X1.67
G40 Y-.8545
Z-1.46 F6.4
G0 Z1.
X1.6979 Y-.8495
Z.05
G1 Z-1.51
G41 D3 Y-.812 F12.8
X-1.5428
G2 X-1.8076 Y-.7023 I0. J.3745
G1 X-1.8273 Y-.6826
G2 X-1.937 Y-.4178 I.2648 J.2648
G1 Y.5729
X-1.8076 Y.7023
G2 X-1.5428 Y.812 I.2648 J-.2648
G1 X1.5428
G2 X1.8076 Y.7023 I0. J-.3745
G1 X1.8273 Y.6826
G2 X1.937 Y.4178 I-.2648 J-.2648
G1 Y-.4178
G2 X1.8273 Y-.6826 I-.3745 J0.
G1 X1.6979 Y-.812
X1.6679
G40 Y-.8495
Z-1.46 F6.4
G0 Z1.
X1.7 Y-.8545
Z-1.46
G1 Z-3.02
G41 D3 Y-.817 F12.8
X-1.5428
G2 X-1.8112 Y-.7058 I0. J.3795
G1 X-1.8308 Y-.6862
G2 X-1.942 Y-.4178 I.2683 J.2684
G1 Y.575
X-1.8112 Y.7058
G2 X-1.5428 Y.817 I.2684 J-.2683
G1 X1.5428
G2 X1.8112 Y.7058 I0. J-.3795
G1 X1.8308 Y.6862
G2 X1.942 Y.4178 I-.2683 J-.2684
G1 Y-.4178
G2 X1.8308 Y-.6862 I-.3795 J0.
G1 X1.7 Y-.817
X1.67
G40 Y-.8545
Z-2.97 F6.4
G0 Z1.
X1.6979 Y-.8495
Z-1.46
G1 Z-3.02
G41 D3 Y-.812 F12.8
X-1.5428
G2 X-1.8076 Y-.7023 I0. J.3745
G1 X-1.8273 Y-.6826
G2 X-1.937 Y-.4178 I.2648 J.2648
G1 Y.5729
X-1.8076 Y.7023
G2 X-1.5428 Y.812 I.2648 J-.2648
G1 X1.5428
G2 X1.8076 Y.7023 I0. J-.3745
G1 X1.8273 Y.6826
G2 X1.937 Y.4178 I-.2648 J-.2648
G1 Y-.4178
G2 X1.8273 Y-.6826 I-.3745 J0.
G1 X1.6979 Y-.812
X1.6679
G40 Y-.8495
Z-2.97 F6.4
G0 Z1.
G53 Z0. M9
M01 G53 G90 G00 X-24.
(SP M12T)
T11 M6
;
G0 G90 G17 G54 X-.9375 Y0. S1237 M3
G43 H11 Z1. T9
M8
G98 G81 Z-.188 R.1 F1.5
G80 G94
G53 Z0. M9
M01 G53 G90 G00 X-24.
(SP M12T)
T9 M6
;
G0 G90 G17 G54 X-.9375 Y0. S499 M3
G43 H9 Z1. T11
M8
G98 G83 Z-1.2855 R.1 Q.0826 F1.
G80 G94
G53 Z0. M9
M01 G53 G90 G00 X-24.
T11 M6
;
G0 G90 G17 G54 X-.9375 Y.0619 S2578 M3
G43 H11 Z1. T15
M8
Z.05
G1 Z-.1393 F15.5
G41 D11 Y.0869 F30.9
G3 X-1.0244 Y0. I0. J-.0869
X-.8506 I.0869 J0.
X-.9669 Y.0817 I-.0869 J0.
G1 G40 X-.9584 Y.0582
Z-.0893 F15.5
G0 Z1.
X-.9375 Y.0619
Z-.0893
G1 Z-.1787
G41 D11 Y.0869 F30.9
G3 X-1.0244 Y0. I0. J-.0869
X-.8506 I.0869 J0.
X-.9669 Y.0817 I-.0869 J0.
G1 G40 X-.9584 Y.0582
Z-.1287 F15.5
G0 Z1.
;
X0. Y-.5764
Z.05
G1 Z-.1274
G41 D11 Y-.5514 F30.9
X-1.5428
G2 X-1.6234 Y-.518 I0. J.1139
G1 X-1.643 Y-.4984
G2 X-1.6764 Y-.4178 I.0805 J.0806
G1 Y.465
X-1.6234 Y.518
G2 X-1.5428 Y.5514 I.0806 J-.0805
G1 X1.5428
G2 X1.6234 Y.518 I0. J-.1139
G1 X1.643 Y.4984
G2 X1.6764 Y.4178 I-.0805 J-.0806
G1 Y-.4178
G2 X1.643 Y-.4984 I-.1139 J0.
G1 X1.59 Y-.5514
X-.03
G40 Y-.5764
Z-.0774 F15.5
G0 Z1.
G53 Z0. M9
M01 G53 G90 G00 X-24.
(M12 X 1.75)
T15 M6
;
G0 G90 G17 G54 X-.9375 Y0. S100 M5
G43 H15 Z1. T1
M8
S100 M5
G98 G84 Z-1. R.1 F6.8898
G80 G94
G53 Z0. M9
G53 Y0.
M30
%